X: 41722
T: Vals Efter Karl Wäst
R: waltz
M: 3/4
K: Dminor
f4 a2|e4 f2|d2 d2 de|c4 cd|B4 d2|B4 d2|A2 A2 Ac|A6|
f4 a2|e4 f2|d2 d2 de|c4 cf|g4 f2|e4 f2|e2 ed ^ce|d6||
|:a2 ag ab|a2 g2 fg|f2 e2 d2|^c2 A4|a2 ag ab|a2 g2 fe|fg fe d^c|d6:|

